findly-builder/apps/searchassist/src/assets/icons/gray_info.svg

<svg width="14" height="14" viewBox="0 0 14 14" fill="none" xmlns="http://www.w3.org/2000/svg">
<path d="M7 0C3.14243 0 0 3.14243 0 7C0 10.8576 3.14243 14 7 14C10.8576 14 14 10.8576 14 7C14 3.14243 10.8576 0 7 0ZM7 1.07692C10.277 1.07692 12.9231 3.72296 12.9231 7C12.9231 10.277 10.277 12.9231 7 12.9231C3.72296 12.9231 1.07692 10.277 1.07692 7C1.07692 3.72296 3.72296 1.07692 7 1.07692ZM6.46154 3.23077V4.30769H7.53846V3.23077H6.46154ZM6.46154 5.38462V10.7692H7.53846V5.38462H6.46154Z" fill="#9AA0A6"/>
</svg>

<svg width="14" height="14" fill="none" xmlns="http://www.w3.org/2000/svg"><path d="M7 0C3.142 0 0 3.142 0 7s3.142 7 7 7 7-3.142 7-7-3.142-7-7-7Zm0 1.077A5.916 5.916 0 0 1 12.923 7 5.916 5.916 0 0 1 7 12.923 5.916 5.916 0 0 1 1.077 7 5.916 5.916 0 0 1 7 1.077ZM6.462 3.23v1.077h1.076V3.23H6.462Zm0 2.154v5.384h1.076V5.385H6.462Z" fill="#9AA0A6"/></svg>
